ui_kit/lib/assets/icons/spotlight.svg

<svg width="18" height="18" viewBox="0 0 18 18" fill="none" xmlns="http://www.w3.org/2000/svg">
<path fill-rule="evenodd" clip-rule="evenodd" d="M9 0C9.31141 0 9.59583 0.176786 9.73367 0.456034L12.0717 5.19255L17.3001 5.95677C17.6082 6.0018 17.864 6.21781 17.9601 6.51399C18.0561 6.81018 17.9757 7.1352 17.7527 7.35246L13.97 11.0367L14.8628 16.2416C14.9154 16.5486 14.7892 16.8589 14.5372 17.0419C14.2852 17.225 13.9512 17.2491 13.6755 17.1041L9 14.6453L4.32447 17.1041C4.04881 17.2491 3.71476 17.225 3.46278 17.0419C3.2108 16.8589 3.0846 16.5486 3.13724 16.2416L4.02995 11.0367L0.247333 7.35246C0.0242821 7.1352 -0.0561227 6.81018 0.0399133 6.51399C0.135949 6.21781 0.391778 6.0018 0.699872 5.95677L5.92834 5.19255L8.26633 0.456034C8.40417 0.176786 8.68859 0 9 0ZM9 2.66666L7.20549 6.30213C7.08641 6.54337 6.85635 6.71065 6.59016 6.74956L2.57599 7.33629L5.47997 10.1648C5.67296 10.3527 5.76105 10.6237 5.71551 10.8892L5.03034 14.8841L8.61918 12.9967C8.85758 12.8713 9.14242 12.8713 9.38082 12.9967L12.9697 14.8841L12.2845 10.8892C12.239 10.6237 12.327 10.3527 12.52 10.1648L15.424 7.33629L11.4098 6.74956C11.1436 6.71065 10.9136 6.54337 10.7945 6.30213L9 2.66666Z" fill="white"/>
</svg>

<svg xmlns="http://www.w3.org/2000/svg" width="18" height="18" fill="none" viewBox="0 0 18 18"><path fill="#fff" fill-rule="evenodd" d="M9 0a.82.82 0 0 1 .734.456l2.338 4.737 5.228.764a.818.818 0 0 1 .453 1.395l-3.783 3.685.893 5.205a.818.818 0 0 1-1.188.862L9 14.645l-4.676 2.46a.818.818 0 0 1-1.187-.863l.893-5.205L.247 7.352A.818.818 0 0 1 .7 5.957l5.228-.764L8.266.456A.818.818 0 0 1 9 0Zm0 2.667L7.205 6.302a.818.818 0 0 1-.615.448l-4.014.586 2.904 2.829a.818.818 0 0 1 .236.724l-.686 3.995 3.59-1.887a.818.818 0 0 1 .76 0l3.59 1.887-.686-3.995a.818.818 0 0 1 .236-.724l2.904-2.829-4.014-.586a.818.818 0 0 1-.616-.448L9 2.667Z" clip-rule="evenodd"/></svg>
